X:577
T:Miss Pensy MacDonald
R:Reel
N:AKA and see "Lady Belhaven," "Miss McDonald."
B:The Athole Collection
M:C|
L:1/8
K:C
c|BG G/G/G dBgd|BG G/G/G cAFA|BG G/G/G dBga|b^fgd BGG:|
f|e/f/g dg cgBg|Affc AFFf|e/f/g dg cgBg|Aggd BGGf|e/f/g dg cgBg|
Affc AFFf|gefd ecdB|Ag^fa gGG||

